static/icons/google-appstore.svg

<svg xmlns="http://www.w3.org/2000/svg" width="32" height="33" fill="none">
  <path fill="#7EBBE5" d="M3 4.55132V29.1138c.00016.0533.01606.1054.04569.1497.02963.0443.07168.0788.12087.0993.04919.0205.10334.026.15566.0158.05231-.0101.10046-.0355.1384-.0729L16.25 16.8332 3.46062 4.35944c-.03794-.03741-.08609-.06279-.1384-.07295-.05232-.01016-.10647-.00464-.15566.01585s-.09124.05505-.12087.09934c-.02963.04429-.04553.09635-.04569.14964Zm18.6125 7.15688L5.57625 2.87319l-.01-.00562c-.27625-.15-.53875.22375-.3125.44125L17.8244 15.3288l3.7881-3.6206ZM5.255 30.3576c-.2275.2175.035.5912.3125.4412l.01-.0056 16.035-8.835-3.7881-3.6219L5.255 30.3576Zm22.8313-15.0869-4.4782-2.4663-4.2106 4.0288 4.2106 4.0269 4.4782-2.4644c1.2181-.6731 1.2181-2.4519 0-3.125Z"/>
</svg>

<svg width="32" height="33" viewBox="0 0 32 33" fill="none" xmlns="http://www.w3.org/2000/svg">
<path d="M3 4.55132V29.1138C3.00016 29.1671 3.01606 29.2192 3.04569 29.2635C3.07532 29.3078 3.11737 29.3423 3.16656 29.3628C3.21575 29.3833 3.2699 29.3888 3.32222 29.3786C3.37453 29.3685 3.42268 29.3431 3.46062 29.3057L16.25 16.8332L3.46062 4.35944C3.42268 4.32203 3.37453 4.29665 3.32222 4.28649C3.2699 4.27633 3.21575 4.28185 3.16656 4.30234C3.11737 4.32283 3.07532 4.35739 3.04569 4.40168C3.01606 4.44597 3.00016 4.49803 3 4.55132ZM21.6125 11.7082L5.57625 2.87319L5.56625 2.86757C5.29 2.71757 5.0275 3.09132 5.25375 3.30882L17.8244 15.3288L21.6125 11.7082ZM5.255 30.3576C5.0275 30.5751 5.29 30.9488 5.5675 30.7988L5.5775 30.7932L21.6125 21.9582L17.8244 18.3363L5.255 30.3576ZM28.0863 15.2707L23.6081 12.8044L19.3975 16.8332L23.6081 20.8601L28.0863 18.3957C29.3044 17.7226 29.3044 15.9438 28.0863 15.2707Z" fill="#7EBBE5"/>
</svg>
